X:856
T:Sound of Mull
T:Cr\`onan na Linne Mhuilich
R:Reel
B:The Athole Collection
M:C|
L:1/8
K:A Minor
e(AA)c B>A B2|A2 A>^g ae^fd|e(AA)c BA B2|G2 G>c BddB:|
B(ee)d e^f g2| e2 d>^g ae^fd|e/e/e ede^f g2|G2 Gc BddB|B(ee)d e^fg2|
e2 e>^g ae^fd|e/e/e ed e^fge|dBGB dgdB||

